045_full-page-background_02/my_work/img/svg/briefcase.svg

<svg xmlns="http://www.w3.org/2000/svg" xmlns:xlink="http://www.w3.org/1999/xlink" viewBox="0 0 26.458333 26.458334">
  <title>
    briefcase
  </title>
  <defs>
    <symbol viewBox="0 0 28 28" id="a">
      <title>
        briefcase
      </title>
      <path d="M2.6458333 1.0583333H4.7625V.52916667H2.6458333zm4.7625 2.6458334v1.984375c0 .363802-.2976562.6614583-.6614583.6614583H.66145833C.29765625 6.35 0 6.0523437 0 5.6885417v-1.984375h2.778125v.6614583c0 .1447271.1198562.2645833.2645833.2645833H4.365625c.1447271 0 .2645833-.1198562.2645833-.2645833v-.6614583zm-3.175 0v.5291666H3.175v-.5291666zm3.175-1.984375v1.5875H0v-1.5875c0-.3638021.29765625-.6614584.66145833-.6614584H2.1166667V.396875c0-.219075.1778-.396875.396875-.396875h2.38125c.219075 0 .396875.1778.396875.396875v.6614583H6.746875c.3638021 0 .6614583.2976563.6614583.6614584z" stroke-width=".26458332"/>
    </symbol>
  </defs>
  <use height="100%" width="100%" xlink:href="#a" transform="translate(1.984 3.59) scale(3.2126)"/>
</svg>

<svg xmlns="http://www.w3.org/2000/svg" version="1.1" xmlns:xlink="http://www.w3.org/1999/xlink" viewBox="0 0 100 100">
 <title>briefcase</title>
 <defs>
  <symbol id="icon-briefcase" viewBox="0 0 28 28">
   <title>briefcase</title>
   <path stroke-width=".26458" d="m2.6458 1.0583h2.1167v-0.52913h-2.1167zm4.7625 2.6458v1.9844c0 0.3638-0.2976 0.6615-0.6614 0.6615h-6.0854c-0.36384 0-0.6615-0.2977-0.6615-0.6615v-1.9843h2.7781v0.66146c0 0.14473 0.11986 0.26458 0.26458 0.26458h1.3229c0.14473 0 0.26458-0.11986 0.26458-0.26458v-0.6615zm-3.175 0v0.5292h-1.0583v-0.5291zm3.175-1.9844v1.5875h-7.4083v-1.5875c0-0.3637 0.29766-0.6614 0.66146-0.6614h1.4552v-0.66142c0-0.21908 0.1778-0.39688 0.3968-0.39688h2.3812c0.21908 0 0.39688 0.1778 0.39688 0.39688v0.66146h1.4552c0.3638 0 0.66146 0.29766 0.66146 0.66146z"/>
  </symbol>
 </defs>
 <g transform="translate(0 -270.54)">
  <use xlink:href="#icon-briefcase" transform="matrix(3.2126 0 0 3.2126 7.5 284.11)" height="100%" width="100%" y="0" x="0" fill="black"/>
 </g>
</svg>
